packages/bezier-icons/icons/triangle-down-circle.svg

<svg width="24" height="24" viewBox="0 0 24 24" fill="none" xmlns="http://www.w3.org/2000/svg">
<path fill-rule="evenodd" clip-rule="evenodd" d="M4.00018 12.0001C4.00018 16.4111 7.58918 20.0001 12.0002 20.0001C16.4112 20.0001 20.0002 16.4111 20.0002 12.0001C20.0002 7.58912 16.4112 4.00012 12.0002 4.00012C7.58918 4.00012 4.00018 7.58912 4.00018 12.0001ZM2.00018 12.0001C2.00018 6.47712 6.47718 2.00012 12.0002 2.00012C17.5232 2.00012 22.0002 6.47712 22.0002 12.0001C22.0002 17.5231 17.5232 22.0001 12.0002 22.0001C6.47718 22.0001 2.00018 17.5231 2.00018 12.0001ZM7.85248 10.0001H16.5715C16.8255 10.0001 16.9645 10.2961 16.8015 10.4921L12.4425 15.7231C12.3225 15.8671 12.1015 15.8671 11.9815 15.7231L7.62148 10.4921C7.45948 10.2961 7.59748 10.0001 7.85248 10.0001Z" fill="#313234"/>
</svg>

<svg xmlns="http://www.w3.org/2000/svg" width="24" height="24" fill="none" viewBox="0 0 24 24"><path fill="#313234" fill-rule="evenodd" d="M4 12c0 4.411 3.59 8 8 8s8-3.589 8-8-3.589-8-8-8-8 3.59-8 8m-2 0C2 6.477 6.477 2 12 2s10 4.477 10 10-4.477 10-10 10S2 17.523 2 12m5.852-2h8.72a.3.3 0 0 1 .23.492l-4.36 5.231a.3.3 0 0 1-.46 0l-4.36-5.23a.3.3 0 0 1 .23-.493" clip-rule="evenodd"/></svg>
